!!!OTL: 675. Lied des Czaren.
!!!COM: Alb. Lortzing.
!!!ODT: 1837
!!!ARE: Europa, Mitteleuropa, Deutschland
!!!SCT: B0675
!!!TXL: @@DE
!!!YEM: Copyright 1995, estate of Helmut Schaffrath.
**kern	**text
*ICvox	*
*Ivox	*
*clefG2	*
*M3/4	*
*k[b-e-a-]	*
*E-:	*
!LO:TX:a:t=Langſam und mit Gefühl.	!
{8g	Sonſt
=1	=1
4g	ſpielt'
4e-	ich
8r	.
8cc	mit
=2	=2
4cc	Scep-
4b-	-ter,
8r}	.
{8cc	mit
=3	=3
4b-	Kro-
4g	-ne
8gL	und
8eeJ-	.
=4	=4
2ee-}	Stern,
{4ee-	das
=5	=5
8ee-L	Schwert
8ddJ	.
4.a-	ſchon
8cc	als
=6	=6
8ccL	Kind,
8b-J	.
4.g}	ach,
{8b-	ich
=7	=7
4b-	ſchwang
8a-L	es
8gJ	.
8fL	ſo
8b-J	.
=8	=8
2e-}	gern.
{4g	Ge-
=9	=9
4g	-ſpie-
4e-	-len
4cc	und
=10	=10
8b-L	Die-
8ccJ	.
4.a-}	-ner
{8a-	be-
=11	=11
4g	-droh-
4ee-	-te
8ddL	mein
8ccJ	.
=12	=12
(<4b-	Blick,
4.a-)}	.
{8a-	froh
=13	=13
4g	kehrt'
4dd	ich
8anL	ʒum
8b-J	.
=14	=14
4g	Scho-
4d}	-ße
{8anL	des
8b-J	.
=15	=15
8g/L	Vat-
8ddJ	.
8ee-L	-ters
8ddJ	.
12a/nL	ʒu-
12cc	.
12b-J	.
=16	=16
2g}	-rück,
{4b-	und
=17	=17
4cc-	lieb-
4.b-	-ko-
8b-	-ſend
=18	=18
4ccn	ſprach
4b-}	er
{8b-L	Lieb
8ee-J	.
=19	=19
4ee-	Kna-
8ddL	-be,
8ccJ	.
8a-L	biſt
8ccJ	.
=20	=20
2b-}	mein!
{4ee-	O
=21	=21
8ffL	ſe-
8ee-J	.
4.bn	-lig,
8cc	o
=22	=22
8ddL	ſe-
8ccJ	.
4.an}	-lig,
{8b-	ein
=23	=23
4cc	Kind
4b-	noch
4a-X	ʒu
=24	=24
2g}	ſein,
{4b-	o
=25	=25
4b-	ſe-
4dd	-lig,
4ee-	o
=26	=26
8ffL	ſe-
8ee-J	.
8ddL	-lig,
8cc}J	.
{(8ddL	ein
8ccJ)	.
=27	=27
4cc	Kind
8b-L	noch
8a-J	.
8gL	ʒu
8fJ	.
=28	=28
2e-	ſein!
8r}	.
==	==
!!!AGN: Moral - Lied, Vergaenglichkeit
!!!GTL: Didaktische Lieder: Betrachtungen, Vergleiche und Moralisationen
!!!ONB: ESAC (Essen Associative Code) Database: BOEHME
!!!AMT: simple triple
!!!AIN: vox
!!!EED: Helmut Schaffrath
!!!EEV: 1.0
!!!RDF**kern: < = below
!!Alb. Lortzing. 1837.
!!@@COMMENT:"Lied aus der kom. Oper "Cʒar und Ʒimmermann". Text und Muſik von Ald. Lortʒing. Ʒuerſt den 22. Dec. 1837 in Leipʒig aufgeführt."
!!@@END:
!!!Text: A. Lortzing
!!!URL-scan: https://archive.org/details/BoehmeVtLieder1895/page/n525/mode/2up
!!!ENC: Anna Maria Matuszewska
!!!EEV: 2024/17/07
*-	*-
